X:93
T:Welcome Here Again. VWMLa.093
%%VWML:Anon2-3049-p53-0
F:http://www.vwml.org/record/Anon2/3049/p53
S:Anon. MS, late 18thC, Vaughan Williams Mem. Library
O:England;Yorkshire
Z:vmp/efdss.Simon Wilson. Reviewed PJH 2008.
M:C|
L:1/8
Q:1/2=80
K:D
D/D/D AB A>FAB|D/D/D dB A>FE>F|\
D/D/D AF A>Bde|f>def d/d/dd2:|
|:fd- de/f/ gfed|cAeA fAeg|\
fd- de/f/ gfed|cdef d/d/dd2:|
